assets/img/icon-user.svg

<?xml version="1.0" encoding="UTF-8" standalone="no"?>
<svg width="30px" height="35px" viewBox="0 0 30 35" version="1.1" xmlns="http://www.w3.org/2000/svg" xmlns:xlink="http://www.w3.org/1999/xlink">
    <!-- Generator: Sketch 39 (31667) - http://www.bohemiancoding.com/sketch -->
    <title>Page 1</title>
    <desc>Created with Sketch.</desc>
    <defs>
        <polygon id="path-1" points="14.5829 14 0 14 0 0.377 29.1658 0.377 29.1658 14"></polygon>
        <polygon id="path-3" points="20.6783 0.271 0.5013 0.271 0.5013 22.1141 20.6783 22.1141 20.6783 0.271"></polygon>
    </defs>
    <g id="Page-1" stroke="none" stroke-width="1" fill="none" fill-rule="evenodd">
        <g transform="translate(0.000000, -1.000000)">
            <g id="Group-3" transform="translate(0.000000, 21.729500)">
                <mask id="mask-2" fill="white">
                    <use xlink:href="#path-1"></use>
                </mask>
                <g id="Clip-2"></g>
                <path d="M1.0108,13 C1.2208,7.896 4.6418,3.343 9.6808,1.494 L12.2028,3.326 L14.6278,9.094 L16.5868,3.44 L19.4758,1.49 C24.5208,3.336 27.9448,7.893 28.1558,13 L1.0108,13 Z M19.5688,0.462 L19.3328,0.38 L15.7508,2.798 L14.5378,6.299 L13.0178,2.682 L9.8438,0.377 L9.5978,0.462 C3.8568,2.448 -0.0002,7.688 -0.0002,13.5 L-0.0002,14 L29.1658,14 L29.1658,13.5 C29.1658,7.688 25.3098,2.448 19.5688,0.462 L19.5688,0.462 Z" id="Fill-1" fill="#939597" mask="url(#mask-2)"></path>
            </g>
            <g id="Group-6" transform="translate(4.000000, 0.729500)">
                <mask id="mask-4" fill="white">
                    <use xlink:href="#path-3"></use>
                </mask>
                <g id="Clip-5"></g>
                <path d="M10.7393,3.7451 C11.0683,3.7451 11.3893,3.7681 11.6963,3.8151 C12.7903,3.9781 14.4203,5.0171 14.5913,5.3161 L14.7503,5.5931 L15.0583,5.5931 C15.1143,5.5931 15.6183,5.6061 16.0263,6.0771 C16.5793,6.7161 16.8873,7.6781 16.9653,8.9711 C16.9923,9.4441 16.9893,9.9621 16.9553,10.5271 C16.9503,10.6031 16.9493,10.6741 16.9433,10.7511 C16.6433,10.1001 16.1433,9.3171 15.7863,8.7841 C15.7133,8.6761 15.6373,8.5621 15.5803,8.4791 L15.3453,8.1401 L14.9683,8.3061 C14.9343,8.3201 11.5663,9.7781 8.1923,9.8131 C7.8863,9.8131 7.5233,9.7711 7.1573,9.7291 C6.7463,9.6831 6.3323,9.6381 5.9773,9.6381 C5.4923,9.6381 5.1533,9.7241 4.9123,9.9061 C4.9043,9.9121 4.8933,9.9161 4.8853,9.9231 C4.5503,10.1911 4.3193,10.5271 4.1613,10.8681 C4.1603,10.8301 4.1633,10.7831 4.1623,10.7431 C4.1533,10.2791 4.1683,9.7441 4.2423,9.1481 C4.2623,8.9801 4.2983,8.8251 4.3283,8.6671 C5.0763,4.8031 8.6593,3.7451 10.7393,3.7451 M11.3693,18.7801 C11.3693,19.0081 11.1833,19.1931 10.9563,19.1931 C10.7283,19.1931 10.5433,19.0081 10.5433,18.7801 C10.5433,18.5531 10.7283,18.3681 10.9563,18.3681 C11.1833,18.3681 11.3693,18.5531 11.3693,18.7801 M12.3003,18.3681 C12.1233,17.7911 11.5913,17.3681 10.9563,17.3681 C10.1773,17.3681 9.5433,18.0021 9.5433,18.7801 C9.5433,19.5591 10.1773,20.1931 10.9563,20.1931 C11.5263,20.1931 12.0153,19.8521 12.2393,19.3651 C12.5353,19.4121 12.9453,19.4581 13.4363,19.4581 C13.7343,19.4581 14.0643,19.4381 14.4133,19.3951 C13.3563,20.4721 12.0263,21.1141 10.5833,21.1141 C7.4023,21.1141 4.7563,18.0231 4.4273,13.9251 L4.4113,13.7091 L4.2413,13.5731 C4.1343,13.4891 4.0403,13.2811 4.0143,13.0211 L4.8433,13.0091 L4.8243,12.4971 C4.8233,12.4841 4.7863,11.2831 5.5103,10.7041 C5.5133,10.7011 5.6043,10.6381 5.9773,10.6381 C6.2983,10.6381 6.6733,10.6811 7.0453,10.7241 C7.4503,10.7691 7.8513,10.8131 8.2303,10.8131 L8.2323,10.8131 C11.1393,10.7821 13.9693,9.7791 14.9823,9.3811 C15.5843,10.2871 16.1683,11.3061 16.1913,11.5811 C16.2163,12.0391 16.2703,12.2571 16.2803,12.2961 L16.3783,12.6631 L17.1433,12.6701 C17.1603,12.7461 17.1713,12.8281 17.1713,12.9171 C17.1713,13.2351 17.0473,13.4761 16.9253,13.5731 L16.7553,13.7091 L16.7383,13.9251 C16.6073,15.5581 16.1043,17.0251 15.3503,18.2061 C13.9973,18.6121 12.8253,18.4721 12.3003,18.3681 M2.0023,15.8381 C2.2783,15.8381 2.5023,15.6141 2.5023,15.3381 C2.5023,15.0611 2.2783,14.8381 2.0023,14.8381 C1.7253,14.8381 1.5013,14.5671 1.5013,14.2351 C1.5013,13.9021 1.7253,13.6311 2.0023,13.6311 C2.1693,13.6311 2.3083,13.5451 2.3993,13.4201 C2.4983,13.3061 2.5503,13.1571 2.5193,13.0001 C2.5093,12.9421 1.4293,7.2111 4.2313,3.8101 C5.6193,2.1251 7.7573,1.2701 10.5833,1.2701 C13.2613,1.2701 15.3153,2.0951 16.6883,3.7221 C19.5633,7.1271 18.6063,12.9881 18.5953,13.0471 C18.5503,13.3181 18.7323,13.5771 19.0053,13.6241 C19.0333,13.6291 19.0613,13.6311 19.0903,13.6311 C19.1063,13.6311 19.1203,13.6241 19.1363,13.6231 C19.1503,13.6241 19.1633,13.6311 19.1773,13.6311 C19.4543,13.6311 19.6783,13.9021 19.6783,14.2351 C19.6783,14.5671 19.4543,14.8381 19.1773,14.8381 C18.9013,14.8381 18.6773,15.0611 18.6773,15.3381 C18.6773,15.4801 18.7383,15.6071 18.8343,15.6981 C18.2023,16.5211 17.5243,17.1111 16.8463,17.5261 C17.2953,16.5231 17.6013,15.4021 17.7183,14.1951 C18.0053,13.8771 18.1713,13.4161 18.1713,12.9171 C18.1713,12.4981 18.0463,12.1051 17.8373,11.8021 C18.2093,8.7301 17.8773,6.6871 16.7823,5.4231 C16.2783,4.8411 15.6733,4.6661 15.3043,4.6141 C14.6793,3.9111 12.9463,2.9901 11.8453,2.8271 C8.4753,2.3101 3.8463,4.2041 3.2503,9.0251 C3.0933,10.2801 3.1613,11.3081 3.2423,11.9451 C3.0883,12.2261 2.9953,12.5611 2.9953,12.9171 C2.9953,13.4161 3.1613,13.8771 3.4483,14.1951 C3.8853,18.7241 6.9263,22.1141 10.5833,22.1141 C12.7433,22.1141 14.6833,20.9251 16.0053,19.0211 C17.4973,18.4941 19.1193,17.3791 20.4163,15.1391 C20.4203,15.1321 20.4233,15.1251 20.4273,15.1181 C20.4393,15.0991 20.4513,15.0831 20.4623,15.0631 C20.4683,15.0531 20.4683,15.0421 20.4723,15.0311 C20.5993,14.7961 20.6783,14.5261 20.6783,14.2351 C20.6783,13.5271 20.2453,12.9331 19.6493,12.7201 C19.8333,11.1661 20.1543,6.2801 17.4563,3.0801 C15.8843,1.2161 13.5713,0.2701 10.5833,0.2701 C7.4413,0.2701 5.0443,1.2491 3.4563,3.1791 C0.8003,6.4061 1.2513,11.2541 1.4663,12.7411 C0.9033,12.9721 0.5013,13.5531 0.5013,14.2351 C0.5013,15.1191 1.1753,15.8381 2.0023,15.8381" id="Fill-4" fill="#939597" mask="url(#mask-4)"></path>
            </g>
        </g>
    </g>
</svg>

<svg width="30" height="35" viewBox="0 0 30 35" xmlns="http://www.w3.org/2000/svg" xmlns:xlink="http://www.w3.org/1999/xlink"><title>Page 1</title><defs><path id="a" d="M14.583 14H0V.377h29.166V14z"/><path id="c" d="M20.678.271H.501v21.843h20.177V.271z"/></defs><g fill="none" fill-rule="evenodd"><g transform="translate(0 20.73)"><mask id="b" fill="#fff"><use xlink:href="#a"/></mask><path d="M1.01 13c.21-5.104 3.632-9.657 8.67-11.506l2.523 1.832 2.425 5.768 1.959-5.654 2.889-1.95c5.045 1.846 8.469 6.403 8.68 11.51H1.01zM19.57.462L19.333.38 15.75 2.798l-1.213 3.501-1.52-3.617L9.844.377l-.246.085C3.857 2.448 0 7.688 0 13.5v.5h29.166v-.5c0-5.812-3.856-11.052-9.597-13.038z" fill="#939597" mask="url(#b)"/></g><g transform="translate(4 -.27)"><mask id="d" fill="#fff"><use xlink:href="#c"/></mask><path d="M10.74 3.745c.328 0 .65.023.956.07 1.094.163 2.724 1.202 2.895 1.501l.16.277h.307c.056 0 .56.013.968.484.553.64.861 1.601.94 2.894.026.473.023.991-.01 1.556-.006.076-.007.147-.013.224-.3-.65-.8-1.434-1.157-1.967l-.206-.305-.235-.339-.377.166c-.034.014-3.402 1.472-6.776 1.507-.306 0-.669-.042-1.035-.084a11.227 11.227 0 0 0-1.18-.09c-.485 0-.824.085-1.065.267-.008.006-.019.01-.027.017a2.587 2.587 0 0 0-.724.945c0-.038.002-.085.001-.125-.009-.464.006-.999.08-1.595.02-.168.056-.323.086-.48.748-3.865 4.331-4.923 6.411-4.923m.63 15.035a.414.414 0 0 1-.826 0 .413.413 0 0 1 .826 0m.931-.412a1.408 1.408 0 0 0-2.757.412 1.411 1.411 0 1 0 2.696.585 7.656 7.656 0 0 0 2.174.03c-1.057 1.077-2.387 1.72-3.83 1.72-3.18 0-5.827-3.092-6.156-7.19l-.016-.216-.17-.136c-.107-.084-.2-.292-.227-.552l.83-.012-.02-.512c0-.013-.038-1.214.686-1.793.003-.003.094-.066.467-.066.321 0 .696.043 1.068.086.405.045.806.09 1.185.09h.002c2.907-.032 5.737-1.035 6.75-1.433.602.906 1.186 1.925 1.21 2.2.024.458.078.676.088.715l.098.367.765.007c.017.076.028.158.028.247 0 .318-.124.56-.246.656l-.17.136-.017.216c-.13 1.633-.634 3.1-1.388 4.281a6.483 6.483 0 0 1-3.05.162m-10.298-2.53a.5.5 0 0 0 0-1c-.277 0-.5-.27-.5-.603 0-.333.223-.604.5-.604a.489.489 0 0 0 .397-.21.49.49 0 0 0 .12-.42c-.01-.059-1.09-5.79 1.712-9.19 1.388-1.686 3.526-2.54 6.352-2.54 2.678 0 4.732.824 6.105 2.451 2.875 3.405 1.918 9.266 1.907 9.325a.502.502 0 0 0 .495.584c.016 0 .03-.007.046-.008.014.001.027.008.041.008.277 0 .501.271.501.604 0 .332-.224.603-.5.603a.5.5 0 0 0-.344.86c-.632.823-1.31 1.413-1.988 1.828.45-1.003.755-2.124.872-3.33.287-.319.453-.78.453-1.279 0-.419-.125-.812-.334-1.115.372-3.072.04-5.115-1.055-6.379a2.38 2.38 0 0 0-1.478-.809c-.625-.703-2.358-1.624-3.459-1.787-3.37-.517-7.999 1.377-8.595 6.198a11.77 11.77 0 0 0-.008 2.92 2.029 2.029 0 0 0-.247.972c0 .5.166.96.453 1.278.437 4.53 3.478 7.92 7.135 7.92 2.16 0 4.1-1.19 5.422-3.094 1.492-.527 3.114-1.642 4.411-3.882l.011-.02c.012-.02.024-.036.035-.056.006-.01.006-.02.01-.032a1.67 1.67 0 0 0 .206-.796c0-.708-.433-1.302-1.029-1.515.184-1.554.505-6.44-2.193-9.64C15.884 1.216 13.571.27 10.583.27c-3.142 0-5.539.98-7.127 2.91-2.656 3.225-2.205 8.073-1.99 9.56-.563.231-.965.812-.965 1.494 0 .884.674 1.603 1.501 1.603" fill="#939597" mask="url(#d)"/></g></g></svg>
